X:1
T:Title
%%score [ ( 1 2 ) ( 3 4 ) ] { ( 5 6 ) | 7 }
L:1/8
Q:1/4=120
M:4/4
K:E
V:1 treble nm="Midi_74"
V:2 treble 
V:3 bass nm="Midi_74"
V:4 bass 
V:5 treble nm="Org."
V:6 treble 
V:7 bass 
V:1
"^Double counterpoint." e8 | (d2 B2) c2 d2 | e8 || c8 | (B2 E2) (F2 G2) | A4 G4 |{G} F8 || E8 | %8
 B4 A4 | G8 || c8 | B4 (A2 G2) |"^William Henry Havergal\n(1793-1870)" F4 F4 | E8 |] %14
V:2
 G8 | F4 (A2 F2) | E8 || E8 | E4 (D2 E2) | F4 E4 |{E} D8 || E8 | (F2 D2) (E2 F2) | E8 || E8 | %11
 (E2 G2) (F2 E2) | E4 D4 | E8 |] %14
V:3
 B,8 | (B,2 D2) (E2 B,2) | B,8 || A,8 | B,4 B,4 | B,4 B,4 | B,8 || G,8 | (B,2 D2) (C2 B,2) | B,8 || %10
 A,8 | (B,2 G,2) (A,2 B,2) | C4 (B,2 A,2) | G,8 |] %14
V:4
 E,8 | B,4 A,4 | G,8 || A,8 | G,4 (F,2 E,2) | D,4 E,4 | B,,8 || E,8 | (D,2 B,,2) (C,2 D,2) | E,8 || %10
 A,8 | (G,2 E,2) (F,2 G,2) | A,4 (B,2 B,,2) | E,8 |] %14
V:5
 e8 | d2 B2 c2 d2 | e8 || c8 | B2 E2 [DF]2 [EG]2 | A4 G4 |{G} F8 || E8 | B4 A4 | G8 || c8 | %11
 B4 A2 G2 | F4 [DF]4 | E8 |] %14
V:6
 [EGB]8 | F2 D2 E2 F2 | E8 || [EA]8 | B,4 B,4 | [B,F]4 [B,E]4 |{E} [B,D]8 || E8 | F2 D2 E2 F2 | %9
 [B,E]8 || [EA]8 | E2 G2 F2 E2 | [CE]4 B,2 A,2 | [G,E]8 |] %14
V:7
 E,8 | B,4 A,4 | G,8 || A,8 | G,4 F,2 E,2 | D,4 E,4 | B,,8 || [E,G,B,]8 | D,2 B,,2 C,2 D,2 | E,8 || %10
 A,8 | G,2 E,2 F,2 G,2 | A,4 B,2 B,,2 | E,8 |] %14

